packages/foundations/assets/icons/functional/images/audio & video/fast_backward_30_14.svg

<svg width="14" height="14" viewBox="0 0 14 14" fill="none" xmlns="http://www.w3.org/2000/svg">
<g clip-path="url(#clip0_184_262)">
<path fill-rule="evenodd" clip-rule="evenodd" d="M11.3421 10.7509C10.8921 10.7509 10.6181 10.3679 10.6181 10.0809C10.6181 9.75292 11.1381 8.96092 11.1381 8.07192C11.1381 6.18692 9.70208 4.76592 7.95308 4.60192L8.43208 5.05192C8.54108 5.18892 8.63708 5.36692 8.63708 5.54392C8.63708 5.89992 8.30908 6.21392 7.94008 6.21392C7.75384 6.2162 7.57394 6.14632 7.43808 6.01892L5.91408 4.48192C5.78956 4.34756 5.72215 4.17006 5.72608 3.98692C5.72608 3.80892 5.79508 3.65892 5.91608 3.53592L7.46208 1.97792C7.52371 1.91315 7.59786 1.86159 7.68003 1.82635C7.7622 1.79111 7.85067 1.77293 7.94008 1.77292C8.12469 1.77371 8.30151 1.8474 8.43206 1.97794C8.5626 2.10848 8.63629 2.28531 8.63708 2.46992C8.63689 2.5593 8.61863 2.64772 8.58341 2.72986C8.54818 2.812 8.4967 2.88618 8.43208 2.94792L8.11708 3.26192C9.31515 3.37236 10.4285 3.92733 11.2378 4.81756C12.0472 5.70779 12.4939 6.86878 12.4901 8.07192L12.4841 8.29092C12.4351 9.27792 12.0651 10.7509 11.3421 10.7509ZM3.30408 7.26792C4.18708 7.26792 4.82708 7.84692 4.82708 8.64392C4.82708 8.93292 4.67908 9.18692 4.38608 9.40392C4.78808 9.62692 5.03108 9.96792 5.03108 10.3699C5.03108 12.0919 2.93008 12.1939 2.24008 12.2269H2.20608C2.02573 12.2312 1.85108 12.1636 1.72056 12.0391C1.59003 11.9145 1.51432 11.7433 1.51008 11.5629C1.50583 11.3826 1.57341 11.2079 1.69793 11.0774C1.82245 10.9469 1.99373 10.8712 2.17408 10.8669C3.15608 10.8209 3.67008 10.6749 3.67008 10.4369C3.67008 10.3419 3.61008 10.2359 3.48008 10.2359C3.12608 10.2359 2.99008 10.3539 2.77708 10.3539C2.60105 10.3475 2.43423 10.2736 2.31118 10.1476C2.18813 10.0216 2.11827 9.85305 2.11608 9.67692C2.11608 9.38592 2.32808 9.12992 2.64208 9.06592C3.16408 8.95892 3.48608 8.83792 3.48608 8.73992C3.48608 8.68792 3.42308 8.62792 3.27408 8.62792C2.86308 8.62792 2.60808 8.89092 2.28808 8.89092C2.11091 8.88449 1.94304 8.81003 1.81938 8.68301C1.69571 8.55599 1.62576 8.38619 1.62408 8.20892C1.62408 7.96192 1.76408 7.71892 2.00408 7.60092C2.46408 7.37292 2.87808 7.26792 3.30408 7.26792ZM7.54208 7.26592C8.66208 7.26592 9.42708 8.05892 9.42708 9.27492V10.0399C9.42708 11.2699 8.63508 12.0629 7.47308 12.0629C6.42108 12.0629 5.65608 11.2559 5.65608 10.0679V9.21992C5.65608 8.05892 6.44808 7.26592 7.54208 7.26592ZM7.52808 8.62992L7.46908 8.63192C7.20108 8.64892 7.02208 8.74692 7.02208 9.20692V10.0669C7.02208 10.5459 7.17208 10.6919 7.54208 10.6849C7.87008 10.6789 8.04708 10.5179 8.04708 10.0269V9.26092C8.04708 8.68692 7.77508 8.62392 7.52808 8.62992Z" fill="#1A1C1F"/>
</g>
<defs>
<clipPath id="clip0_184_262">
<rect width="14" height="14" fill="white"/>
</clipPath>
</defs>
</svg>

<svg xmlns="http://www.w3.org/2000/svg" width="14" height="14" fill="none"><g clip-path="url(#a)"><path fill="#1A1C1F" fill-rule="evenodd" d="M11.342 10.75c-.45 0-.724-.382-.724-.67 0-.327.52-1.12.52-2.008 0-1.885-1.436-3.306-3.185-3.47l.48.45c.108.137.204.315.204.492 0 .356-.328.67-.697.67a.72.72 0 0 1-.502-.195L5.914 4.482a.7.7 0 0 1-.188-.495c0-.178.07-.328.19-.451l1.546-1.558a.66.66 0 0 1 .478-.205.7.7 0 0 1 .697.697.66.66 0 0 1-.205.478l-.315.314a4.815 4.815 0 0 1 4.373 4.81l-.006.219c-.049.987-.419 2.46-1.142 2.46M3.304 7.269c.883 0 1.523.579 1.523 1.376q-.001.434-.44.76c.401.223.644.564.644.966 0 1.722-2.1 1.824-2.79 1.857h-.035a.68.68 0 0 1-.032-1.36c.982-.046 1.496-.192 1.496-.43 0-.095-.06-.201-.19-.201-.354 0-.49.118-.703.118a.686.686 0 0 1-.66-.677c0-.291.211-.547.525-.611.522-.107.844-.228.844-.326 0-.052-.063-.112-.212-.112-.41 0-.666.263-.986.263a.69.69 0 0 1-.664-.682c0-.247.14-.49.38-.608.46-.228.874-.333 1.3-.333m4.238-.002c1.12 0 1.885.793 1.885 2.009v.765c0 1.23-.792 2.023-1.954 2.023-1.052 0-1.817-.807-1.817-1.995V9.22c0-1.161.792-1.954 1.886-1.954M7.528 8.63l-.059.002c-.268.017-.447.115-.447.575v.86c0 .479.15.625.52.618.328-.006.505-.167.505-.658V9.26c0-.574-.272-.637-.519-.631" clip-rule="evenodd"/></g><defs><clipPath id="a"><path fill="#fff" d="M0 0h14v14H0z"/></clipPath></defs></svg>
